X:1
T:Adsum, 10.10.10.10
T:Adsum, 10.10.10.10
T:Carey Bonner (1859-1938)
T:Public Domain Courtesy of the Cyber Hymnal™
C:Carey Bonner (1859-1938)
Z:Public Domain
Z:Courtesy of the Cyber Hymnal™
%%score ( 1 2 ) ( 3 4 )
L:1/8
Q:1/4=115
M:4/4
K:E
V:1 treble 
V:2 treble 
V:3 bass 
V:4 bass 
V:1
|: [EG]4 [EF]2 [EG]2 | [Gc]2 [GB]2 [FA]2 C2 | [A,D]4 ([B,E]2 [DF]2) | E8 | [EG]4 F2 [EG]2 | %5
 [^EA]2 [EG]2 F2 [FG]2 | [E^A]4 ([DB]2 [Ec]2) | [DB]8 | [EB]4 [Ac]2 [Ad]2 | %9
 [Ge]2 [EB]2 [EA]2 [EG]2 | [EA]4 [=DB]4 | [Cc]8 | [CF]4 [^EG]2 [FA]2 |1,2,3,4 %13
 [FB]2 [EG]2 [DF]2 [CE]2 | A4 (F2 G2) | E8 :|5 [FB]2 [EG]2 ([DF]2 [CE]2) || A4 [DF]2 [DG]2 | E8 |] %19
V:2
|: x8 | x6 C2 | x8 | E8 | x4 F2 x2 | x4 F2 x2 | x8 | x8 | x8 | x8 | x8 | x8 | x8 |1,2,3,4 x8 | %14
 (C2 E2) D4 | E8 :|5 x8 || (C2 E2) x4 | E8 |] %19
V:3
|: [E,B,]4 [E,A,]2 [E,B,]2 | [E,E]2 [^E,=D]2 [F,C]2 [F,A,]2 | [B,,F,]4 (G,2 A,2) | (A,4 G,4) | %4
 [E,B,]4 [D,B,]2 [E,B,]2 | [C,C]2 [C,B,]2 [F,^A,]2 [F,B,]2 | [F,C]4 (B,2 ^A,2) | B,8 | %8
 [G,B,]4 [F,B,]2 [F,B,]2 | [E,B,]2 (EB,) [F,B,]2 B,2 | (A,2 E,2) (F,2 G,2) | [A,,A,]8 | %12
 [A,C]4 [G,C]2 [F,C]2 |1,2,3,4 [D,B,]2 [E,B,]2 [B,,A,]2 [C,G,]2 | [F,,C]4 (A,2 B,2) | [E,G,]8 :|5 %16
 [D,B,]2 [E,B,]2 ([B,,A,]2 [C,G,]2) || [F,,C]4 [B,,A,]2 [B,,B,]2 | [E,G,]8 |] %19
V:4
|: x8 | x8 | x4 B,,4 | E,8 | x8 | x8 | x4 F,4 | B,4 A,4 | x8 | x2 G,2 x (E,=D,) x | C,4 B,,4 | x8 | %12
 x8 |1,2,3,4 x8 | x4 B,,4 | x8 :|5 x8 || x8 | x8 |] %19

